dist/images/icons/tg-footer.svg

<svg width="33" height="34" viewBox="0 0 33 34" fill="none" xmlns="http://www.w3.org/2000/svg">
<path d="M16.5 0.183594C25.6125 0.183594 33 7.54779 33 16.6315C33 25.7153 25.6125 33.0795 16.5 33.0795C7.3875 33.0795 0 25.7153 0 16.6315C0 7.54779 7.3875 0.183594 16.5 0.183594ZM22.1918 23.3363C22.4948 22.4085 23.9175 13.1573 24.0922 11.3338C24.1455 10.7821 23.97 10.415 23.628 10.2505C23.2133 10.0524 22.5997 10.151 21.8865 10.4075C20.9092 10.7589 8.418 16.0454 7.6965 16.3519C7.0125 16.642 6.36525 16.9575 6.36525 17.4158C6.36525 17.738 6.55725 17.919 7.08525 18.1066C7.63425 18.3018 9.018 18.7197 9.83625 18.9447C10.6237 19.1615 11.5185 18.9731 12.021 18.6621C12.5527 18.3324 18.6967 14.2354 19.137 13.8758C19.5772 13.5169 19.929 13.9767 19.569 14.3363C19.209 14.6952 14.9925 18.775 14.436 19.3402C13.7602 20.0258 14.2395 20.7368 14.6932 21.0216C15.21 21.3469 18.93 23.8335 19.4902 24.2327C20.0505 24.632 20.6183 24.8129 21.1388 24.8129C21.6593 24.8121 21.933 24.1288 22.1918 23.3363Z" fill="white"/>
</svg>

<svg xmlns="http://www.w3.org/2000/svg" width="33" height="34" fill="none"><path fill="#fff" d="M16.5.184C25.613.184 33 7.548 33 16.63c0 9.084-7.387 16.449-16.5 16.449S0 25.715 0 16.632 7.388.183 16.5.183m5.692 23.152c.303-.927 1.726-10.179 1.9-12.002.053-.552-.122-.919-.464-1.083-.415-.199-1.028-.1-1.741.157-.978.35-13.469 5.637-14.19 5.944-.684.29-1.332.605-1.332 1.064 0 .322.192.503.72.69.55.196 1.933.614 2.751.839.788.216 1.682.028 2.185-.283.532-.33 6.676-4.427 7.116-4.786.44-.36.792.1.432.46s-4.576 4.439-5.133 5.004c-.676.686-.197 1.397.257 1.682.517.325 4.237 2.812 4.797 3.21.56.4 1.128.58 1.649.58.52 0 .794-.683 1.053-1.476"/></svg>
